src/assets/icons/java-script.svg

<?xml version="1.0" encoding="UTF-8" standalone="no" ?>
<!DOCTYPE svg PUBLIC "-//W3C//DTD SVG 1.1//EN" "http://www.w3.org/Graphics/SVG/1.1/DTD/svg11.dtd">
<svg xmlns="http://www.w3.org/2000/svg" xmlns:xlink="http://www.w3.org/1999/xlink" version="1.1" width="1080" height="1080" viewBox="0 0 1080 1080" xml:space="preserve">
<desc>Created with Fabric.js 4.2.0</desc>
<defs>
</defs>
<rect x="0" y="0" width="100%" height="100%" fill="transparent"></rect>
<g transform="matrix(1 0 0 1 540 540)" id="397bbd79-3936-4d2e-9ff5-8bca9b1695d3"  >
<rect style="stroke: none; stroke-width: 1; stroke-dasharray: none; stroke-linecap: butt; stroke-dashoffset: 0; stroke-linejoin: miter; stroke-miterlimit: 4; fill: rgb(255,255,255); fill-rule: nonzero; opacity: 1;" vector-effect="non-scaling-stroke"  x="-540" y="-540" rx="0" ry="0" width="1080" height="1080" />
</g>
<g transform="matrix(1 0 0 1 540 540)" id="3ed92ecb-e198-4a5a-9166-a6181423ab64"  >
</g>
<g transform="matrix(0.92 0 0 0.92 540 540)" id="7e1742fd-7db1-4e26-a6cb-9061822358ec"  >
<path style="stroke: rgb(69,104,220); stroke-width: 0; stroke-dasharray: none; stroke-linecap: butt; stroke-dashoffset: 0; stroke-linejoin: miter; stroke-miterlimit: 4; fill: rgb(69,104,220); fill-rule: nonzero; opacity: 1;" vector-effect="non-scaling-stroke"  transform=" translate(-256, -256)" d="M 488.534 4.267 C 486.4 2.1330000000000005 484.267 0 480.001 0 L 32 0 C 29.867 0 25.601 2.133 23.467 4.267 C 21.333 6.401000000000001 21.334 8.534 21.334 12.8 L 64.001 439.467 C 64.001 443.734 68.268 448 70.4 448 L 262.4 512 L 266.667 512 L 270.93399999999997 512 L 441.59999999999997 448 C 445.86699999999996 445.867 447.99899999999997 443.733 447.99899999999997 439.467 L 490.66599999999994 12.800000000000011 C 490.66799999999995 10.668000000000012 490.66799999999995 6.400000000000011 488.53399999999993 4.267000000000012 z M 256.001 386.134 C 256.001 388.267 253.867 392.534 251.73399999999998 394.66700000000003 C 249.60099999999997 396.80000000000007 247.34099999999998 397.083 245.20899999999997 397.083 L 243.20199999999997 396.8 L 168.53499999999997 375.467 C 164.26799999999997 373.334 162.13599999999997 371.2 160.00199999999998 366.93399999999997 L 149.33499999999998 313.59999999999997 C 147.20199999999997 307.20099999999996 151.468 302.933 157.86799999999997 300.79999999999995 C 164.26699999999997 298.667 168.53499999999997 302.93299999999994 170.66899999999995 309.33299999999997 L 179.20199999999994 356.26599999999996 L 234.66899999999993 371.2 L 234.66899999999993 130.134 L 117.33399999999993 130.134 C 110.93499999999993 130.134 106.66699999999993 125.86699999999999 106.66699999999993 119.46699999999998 C 106.66699999999993 113.06799999999998 110.93399999999993 108.79999999999998 117.33399999999993 108.79999999999998 L 245.33399999999995 108.79999999999998 C 251.73299999999995 108.79999999999998 256.0009999999999 113.06699999999998 256.0009999999999 119.46699999999998 z M 405.33399999999995 121.60000000000002 L 394.667 164.26700000000002 C 392.534 170.66600000000003 388.18499999999995 173.82600000000002 381.86699999999996 172.8 C 375.20899999999995 171.72 372.65899999999993 166.365 373.33399999999995 159.99900000000002 C 374.1379999999999 152.40500000000003 379.73299999999995 130.13300000000004 379.73299999999995 130.13300000000004 L 296.53299999999996 130.13300000000004 L 296.53299999999996 236.80000000000004 L 371.19999999999993 236.80000000000004 C 373.3329999999999 236.80000000000004 377.59899999999993 238.93300000000005 379.73299999999995 241.06700000000004 C 381.86599999999993 243.20000000000005 381.86599999999993 247.46600000000004 381.86599999999993 249.60000000000002 L 360.5329999999999 366.933 C 360.5329999999999 371.2 356.2659999999999 373.332 354.1339999999999 375.466 L 290.1339999999999 396.799 C 288.0009999999999 396.799 280.2499999999999 399.74899999999997 275.1999999999999 390.4 C 273.0669999999999 384.001 277.33299999999986 379.733 281.5989999999999 377.599 L 339.1989999999999 358.399 L 356.2659999999999 260.265 L 283.7319999999999 260.265 C 277.3329999999999 260.265 273.06499999999994 255.998 273.06499999999994 249.59799999999998 L 273.06499999999994 121.59799999999998 C 273.06499999999994 115.19899999999998 277.33199999999994 110.93099999999998 283.7319999999999 110.93099999999998 L 390.3989999999999 110.93099999999998 C 394.6659999999999 110.93099999999998 397.5859999999999 111.84299999999999 400.3739999999999 112.99799999999999 C 406.28899999999993 115.44899999999998 405.3339999999999 119.46699999999998 405.3339999999999 121.6 z" stroke-linecap="round" />
</g>
</svg>

<svg id="Layer_1" enable-background="new 0 0 512 512" viewBox="0 0 512 512" xmlns="http://www.w3.org/2000/svg"><g><g><path d="m488.534 4.267c-2.134-2.134-4.267-4.267-8.533-4.267h-448.001c-2.133 0-6.399 2.133-8.533 4.267s-2.133 4.267-2.133 8.533l42.667 426.667c0 4.267 4.267 8.533 6.399 8.533l192 64h4.267 4.267l170.666-64c4.267-2.133 6.399-4.267 6.399-8.533l42.667-426.667c.002-2.132.002-6.4-2.132-8.533zm-232.533 381.867c0 2.133-2.134 6.4-4.267 8.533s-4.393 2.416-6.525 2.416l-2.007-.283-74.667-21.333c-4.267-2.133-6.399-4.267-8.533-8.533l-10.667-53.334c-2.133-6.399 2.133-10.667 8.533-12.8 6.399-2.133 10.667 2.133 12.801 8.533l8.533 46.933 55.467 14.934v-241.066h-117.335c-6.399 0-10.667-4.267-10.667-10.667 0-6.399 4.267-10.667 10.667-10.667h128c6.399 0 10.667 4.267 10.667 10.667zm149.333-264.534-10.667 42.667c-2.133 6.399-6.482 9.559-12.8 8.533-6.658-1.08-9.208-6.435-8.533-12.801.804-7.594 6.399-29.866 6.399-29.866h-83.2v106.667h74.667c2.133 0 6.399 2.133 8.533 4.267 2.133 2.133 2.133 6.399 2.133 8.533l-21.333 117.333c0 4.267-4.267 6.399-6.399 8.533l-64 21.333c-2.133 0-9.884 2.95-14.934-6.399-2.133-6.399 2.133-10.667 6.399-12.801l57.6-19.2 17.067-98.134h-72.534c-6.399 0-10.667-4.267-10.667-10.667v-128c0-6.399 4.267-10.667 10.667-10.667h106.667c4.267 0 7.187.912 9.975 2.067 5.915 2.451 4.96 6.469 4.96 8.602z"/></g></g><g/><g/><g/><g/><g/><g/><g/><g/><g/><g/><g/><g/><g/><g/><g/></svg>
